svg/bar-chart.svg

<svg xmlns="http://www.w3.org/2000/svg" viewBox="0 0 64 64" enable-background="new 0 0 64 64"><style type="text/css">.st0{fill:#333333;}</style><title>bar-chart</title><desc>Created with Sketch.</desc><path class="st0" d="M61 58h-55v-55c0-1.7-1.3-3-3-3s-3 1.3-3 3v58c0 1.7 1.3 3 3 3h58c1.7 0 3-1.3 3-3s-1.3-3-3-3zM15 54c2.2 0 4-1.8 4-4v-32c0-2.2-1.8-4-4-4s-4 1.8-4 4v32c0 2.2 1.8 4 4 4zM29 54c2.2 0 4-1.8 4-4v-16c0-2.2-1.8-4-4-4s-4 1.8-4 4v16c0 2.2 1.8 4 4 4zM43 54c2.2 0 4-1.8 4-4v-24c0-2.2-1.8-4-4-4s-4 1.8-4 4v24c0 2.2 1.8 4 4 4zM57 54c2.2 0 4-1.8 4-4v-8c0-2.2-1.8-4-4-4s-4 1.8-4 4v8c0 2.2 1.8 4 4 4z"/></svg>

<?xml version="1.0" encoding="utf-8"?>
<!-- Generator: Adobe Illustrator 21.0.0, SVG Export Plug-In . SVG Version: 6.00 Build 0)  -->
<svg version="1.1" id="Layer_1" xmlns="http://www.w3.org/2000/svg" xmlns:xlink="http://www.w3.org/1999/xlink" x="0px" y="0px"
	 viewBox="0 0 64 64" style="enable-background:new 0 0 64 64;" xml:space="preserve">
<style type="text/css">
	.st0{fill:#333333;}
</style>
<title>bar-chart</title>
<desc>Created with Sketch.</desc>
<g>
	<path class="st0" d="M61,58H6V3c0-1.7-1.3-3-3-3S0,1.3,0,3v58c0,1.7,1.3,3,3,3h58c1.7,0,3-1.3,3-3S62.7,58,61,58z"/>
	<path class="st0" d="M15,54c2.2,0,4-1.8,4-4V18c0-2.2-1.8-4-4-4s-4,1.8-4,4v32C11,52.2,12.8,54,15,54z"/>
	<path class="st0" d="M29,54c2.2,0,4-1.8,4-4V34c0-2.2-1.8-4-4-4s-4,1.8-4,4v16C25,52.2,26.8,54,29,54z"/>
	<path class="st0" d="M43,54c2.2,0,4-1.8,4-4V26c0-2.2-1.8-4-4-4s-4,1.8-4,4v24C39,52.2,40.8,54,43,54z"/>
	<path class="st0" d="M57,54c2.2,0,4-1.8,4-4v-8c0-2.2-1.8-4-4-4s-4,1.8-4,4v8C53,52.2,54.8,54,57,54z"/>
</g>
</svg>
